X: 364
T: the Jolly Beggarman   #2
R: waltz, air
%S: s:2 b:25(13+12)
B: O'Neill's 1850 #364
O: F.O'Neill.
Z: Chris Falt, cfalt@trytel.com
N: Compacted via repeats and multiple endings [JC]
Q: "Gaily."
M: 3/4
L: 1/4
K: D
(f/e/) "^A"|: d>cA | (TAGA) | c>AG |[1 A2(f/e/) | d>cA | ABc | d>ed | (dfe) :|[2 ATfe | d>cA | ABc | d3- | d2 ||
f/g/ "^B"|: (a2b) | (g2a) | fed | cde |[1 (a2b) | (g2a) | fed | efg :|[2 fed | cAc | d3- | d2 |]
